icons/svgs/users-solid.svg

<svg width="25" height="24" viewBox="0 0 25 24" fill="none" xmlns="http://www.w3.org/2000/svg">
<path d="M5.625 2C6.71875 2 7.73438 2.625 8.32031 3.5625C8.86719 4.53906 8.86719 5.75 8.32031 6.6875C7.73438 7.66406 6.71875 8.25 5.625 8.25C4.49219 8.25 3.47656 7.66406 2.89062 6.6875C2.34375 5.75 2.34375 4.53906 2.89062 3.5625C3.47656 2.625 4.49219 2 5.625 2ZM20 2C21.0938 2 22.1094 2.625 22.6953 3.5625C23.2422 4.53906 23.2422 5.75 22.6953 6.6875C22.1094 7.66406 21.0938 8.25 20 8.25C18.8672 8.25 17.8516 7.66406 17.2656 6.6875C16.7188 5.75 16.7188 4.53906 17.2656 3.5625C17.8516 2.625 18.8672 2 20 2ZM0 13.6797C0 11.375 1.83594 9.5 4.14062 9.5H5.82031C6.44531 9.5 7.03125 9.65625 7.57812 9.89062C7.5 10.1641 7.5 10.4766 7.5 10.75C7.5 12.2734 8.125 13.6016 9.17969 14.5C9.17969 14.5 9.17969 14.5 9.14062 14.5H0.820312C0.351562 14.5 0 14.1484 0 13.6797ZM15.8203 14.5H15.7812C16.8359 13.6016 17.4609 12.2734 17.4609 10.75C17.4609 10.4766 17.4609 10.1641 17.4219 9.89062C17.9297 9.65625 18.5156 9.5 19.1406 9.5H20.8203C23.125 9.5 25 11.375 25 13.6797C25 14.1484 24.6094 14.5 24.1406 14.5H15.8203ZM8.75 10.75C8.75 9.42188 9.45312 8.21094 10.625 7.50781C11.7578 6.84375 13.2031 6.84375 14.375 7.50781C15.5078 8.21094 16.25 9.42188 16.25 10.75C16.25 12.1172 15.5078 13.3281 14.375 14.0312C13.2031 14.6953 11.7578 14.6953 10.625 14.0312C9.45312 13.3281 8.75 12.1172 8.75 10.75ZM5 20.9844C5 18.0938 7.30469 15.75 10.1953 15.75H14.7656C17.6562 15.75 20 18.0938 20 20.9844C20 21.5312 19.5312 22 18.9453 22H6.01562C5.46875 22 5 21.5703 5 20.9844Z" fill="black"/>
</svg>

<svg xmlns="http://www.w3.org/2000/svg" width="24" height="24" fill="currentColor" class="icon-users-solid" viewBox="0 0 24 24">
  <mask id="a" width="25" height="20" x="0" y="2" maskUnits="userSpaceOnUse" style="mask-type:alpha">
    <path d="M5.625 2c1.094 0 2.11.625 2.695 1.563.547.976.547 2.187 0 3.125-.586.976-1.601 1.562-2.695 1.562a3.16 3.16 0 0 1-2.734-1.562c-.547-.938-.547-2.149 0-3.125C3.477 2.625 4.492 2 5.625 2M20 2c1.094 0 2.11.625 2.695 1.563.547.976.547 2.187 0 3.125C22.11 7.664 21.094 8.25 20 8.25a3.16 3.16 0 0 1-2.734-1.562c-.547-.938-.547-2.149 0-3.125C17.852 2.625 18.867 2 20 2M0 13.68C0 11.375 1.836 9.5 4.14 9.5h1.68c.625 0 1.211.156 1.758.39-.078.274-.078.587-.078.86 0 1.523.625 2.852 1.68 3.75H.82a.8.8 0 0 1-.82-.82m15.82.82h-.039c1.055-.898 1.68-2.227 1.68-3.75 0-.273 0-.586-.04-.86a4.1 4.1 0 0 1 1.72-.39h1.68A4.184 4.184 0 0 1 25 13.68c0 .468-.39.82-.86.82zm-7.07-3.75c0-1.328.703-2.54 1.875-3.242 1.133-.664 2.578-.664 3.75 0 1.133.703 1.875 1.914 1.875 3.242 0 1.367-.742 2.578-1.875 3.281-1.172.664-2.617.664-3.75 0-1.172-.703-1.875-1.914-1.875-3.281M5 20.984c0-2.89 2.305-5.234 5.195-5.234h4.57A5.235 5.235 0 0 1 20 20.984c0 .547-.469 1.016-1.055 1.016H6.015A1.01 1.01 0 0 1 5 20.984"/>
  </mask>
  <g mask="url(#a)">
    <path d="M0 0h24v24H0z"/>
  </g>
</svg>
